X:1
T:The Ledbury Parson
S:Charlie Clissold, Brookthorpe, Gloucestershire
Z:Recorded by Mike Yates and Gwilym Davies, 1978
B:English Dance & Song, vol 43 no 1, 1981
N:Roud 2332
L:1/8
Q:1/4=100
M:6/8
K:D
"1"F|D2 "2"D F2 F|EEE D2 D|DE"3"F AAA|
w:In Led-bury town in He-re-ford-shire They rucked up a row with the
G2 G F2 A|B2 B GGB|A2 G F2 A|
w:par-son there. This pi-ous gen-tle-man, so they say, Was
B2 B (GA)B|AAG F2 "Chorus"E/E/|DDE F2 E|
w:far too fond_ of go-ing a-stray. So if go-ing a-stray should
E2 E F2 E|DDA A2 G|F2 E D2|]
w:be your plan Just think of the Led-bury cler-gy-man.
"Variations" | "1"E | D2 "2"E F2 F | DE"3"A AAA |
